X:1
T:The Jolly Tinker's Reel
R:reel
B:Ryan's Mammoth Collection
Z:Contributed by Ray Davies,  ray:davies99.freeserve.co.uk
M:C|
L:1/8
K:Ador
vgf"Segno"|eAAg edBd|eAAf g2fg|eAAg edBd|dBGB d2Bd|
eAAg edBd|eAAf e2dB|dega bfge|1 dBGB d2:|2 dBGB d2BG||
:A2AB G2GB|A2Bd e2dB|A2AB G2GB|dBGB d2BG|
A2AB G2GB|A2Bd e2dB|A2AB G2GB|1 dBGB dgfg:|2 dBGB d2gf"Segno"||
